public/assets/wallIns1.svg

<svg width="141" height="90" viewBox="0 0 141 90" fill="none" xmlns="http://www.w3.org/2000/svg">
<path d="M81.1654 34.144L7.00635 45.2368V86.6545L81.1654 34.144Z" stroke="#062023" stroke-width="0.5" stroke-miterlimit="10" stroke-linecap="round" stroke-linejoin="round"/>
<path d="M7.00635 86.6544L81.1654 34.144L90.1772 32.835L116.29 11.9248L134.381 44.4648V86.6544H7.00635Z" fill="url(#paint0_linear_57_687)"/>
<path d="M3.18115 89.2054L128.122 1" stroke="#062023" stroke-width="0.5" stroke-miterlimit="10" stroke-linecap="round" stroke-linejoin="round"/>
<path d="M91.1172 32.1973L133.827 43.3236" stroke="#062023" stroke-width="0.5" stroke-miterlimit="10" stroke-linecap="round" stroke-linejoin="round"/>
<path d="M73.7661 39.5132V50.9416" stroke="#062023" stroke-width="0.5" stroke-miterlimit="10" stroke-linecap="round" stroke-linejoin="round"/>
<path d="M75.5618 53.6263C76.0317 54.8346 75.2597 56.2443 73.9507 56.3618C73.8836 56.3618 73.8332 56.3785 73.7661 56.3785C73.699 56.3785 73.6486 56.3785 73.5815 56.3618C72.2893 56.2443 71.5006 54.8682 71.9704 53.6431L72.4571 52.3677C72.541 52.1327 72.5914 51.8978 72.5914 51.6461V51.344C72.5914 51.1258 72.7592 50.958 72.9774 50.958H74.5548C74.773 50.958 74.9408 51.1258 74.9408 51.344V51.6461C74.9408 51.8978 74.9912 52.1495 75.0751 52.3845L75.5618 53.6263Z" stroke="#062023" stroke-width="0.5" stroke-miterlimit="10" stroke-linecap="round" stroke-linejoin="round"/>
<path d="M60.0034 73.6665L57.3686 74.7405C56.3114 75.1768 55.8079 76.3683 56.2107 77.4256L58.342 82.9804C58.4091 83.1818 58.6105 83.2992 58.8118 83.2992H88.6332C88.8346 83.2992 89.0192 83.165 89.1031 82.9804L91.2847 77.2578C91.6707 76.2676 91.2344 75.1433 90.2946 74.6566L87.8445 73.3979" stroke="#062023" stroke-width="0.5" stroke-miterlimit="10" stroke-linecap="round" stroke-linejoin="round"/>
<path d="M73.0091 78.0965H60.7415C60.3891 78.0965 60.1206 77.8112 60.1206 77.4756V72.3236C60.1206 71.9711 60.4059 71.7026 60.7415 71.7026H73.0091C73.3615 71.7026 73.63 71.9879 73.63 72.3236V77.4756C73.6468 77.8112 73.3615 78.0965 73.0091 78.0965Z" stroke="#062023" stroke-width="0.5" stroke-miterlimit="10" stroke-linecap="round" stroke-linejoin="round"/>
<path d="M73.094 81.5533H59.2825C58.9301 81.5533 58.6616 81.268 58.6616 80.9324V79.6234C58.6616 79.271 58.9469 79.0024 59.2825 79.0024H73.094C73.4464 79.0024 73.7149 79.2877 73.7149 79.6234V80.9324C73.7317 81.2848 73.4464 81.5533 73.094 81.5533Z" stroke="#062023" stroke-width="0.5" stroke-miterlimit="10" stroke-linecap="round" stroke-linejoin="round"/>
<path d="M88.5667 81.5533H74.7552C74.4028 81.5533 74.1343 81.268 74.1343 80.9324V79.6234C74.1343 79.271 74.4196 79.0024 74.7552 79.0024H88.5667C88.9191 79.0024 89.1876 79.2877 89.1876 79.6234V80.9324C89.1876 81.2848 88.9191 81.5533 88.5667 81.5533Z" stroke="#062023" stroke-width="0.5" stroke-miterlimit="10" stroke-linecap="round" stroke-linejoin="round"/>
<path d="M87.0066 78.0965H74.7391C74.3867 78.0965 74.1182 77.8112 74.1182 77.4756V72.3236C74.1182 71.9711 74.4035 71.7026 74.7391 71.7026H87.0066C87.359 71.7026 87.6276 71.9879 87.6276 72.3236V77.4756C87.6443 77.8112 87.359 78.0965 87.0066 78.0965Z" stroke="#062023" stroke-width="0.5" stroke-miterlimit="10" stroke-linecap="round" stroke-linejoin="round"/>
<path d="M59.0461 83.2988L58.8447 86.3867C58.8447 86.4706 58.9454 86.4874 58.979 86.4203L60.3215 83.2988" stroke="#062023" stroke-width="0.5" stroke-miterlimit="10" stroke-linecap="round" stroke-linejoin="round"/>
<path d="M88.4141 83.2988L88.6155 86.3867C88.6155 86.4706 88.5148 86.4874 88.4812 86.4203L87.1387 83.2988" stroke="#062023" stroke-width="0.5" stroke-miterlimit="10" stroke-linecap="round" stroke-linejoin="round"/>
<path d="M44.9838 86.6377H42.4497C41.7953 86.6377 41.2247 86.235 41.1072 85.6812L40.4695 82.4926C40.3184 81.7878 40.9562 81.1333 41.812 81.1333H45.6383C46.4774 81.1333 47.1151 81.7878 46.9808 82.4926L46.3431 85.6812C46.2089 86.235 45.6383 86.6377 44.9838 86.6377Z" stroke="#062023" stroke-width="0.5" stroke-miterlimit="10" stroke-linecap="round" stroke-linejoin="round"/>
<path d="M44.4476 81.1335C44.4476 81.1335 44.414 80.2609 45.0685 79.556C45.723 78.8512 47.4012 76.4346 48.1899 76.2164C48.9787 75.9983 50.724 76.0654 50.724 76.0654C50.724 76.0654 48.8612 76.1829 48.3913 76.8877C47.9214 77.5926 47.334 79.3379 45.9076 79.8078C45.3706 79.9756 45.0853 81.1167 45.0853 81.1167" stroke="#062023" stroke-width="0.5" stroke-miterlimit="10" stroke-linecap="round" stroke-linejoin="round"/>
<path d="M43.9116 81.0157C43.9116 81.0157 44.1298 76.837 46.3785 75.2259C47.419 74.4875 47.7211 73.5142 48.6777 73.3296C48.1742 73.8834 48.8119 75.2092 47.5029 75.7965C47.5029 75.7965 46.5128 76.0482 46.0597 77.5083C45.7744 78.4145 45.0696 79.5389 45.0696 79.5389" stroke="#062023" stroke-width="0.5" stroke-miterlimit="10" stroke-linecap="round" stroke-linejoin="round"/>
<path d="M44.162 79.2371C44.162 79.2371 43.927 75.5115 43.0376 75.0081C42.1482 74.5214 40.8224 73.934 39.9833 74.4039C39.2953 74.7899 38.9932 75.6122 38.3555 75.78C39.1946 75.7465 40.3189 74.0683 41.3259 74.6556C41.779 74.9241 43.3732 75.5954 43.7089 80.9992" stroke="#062023" stroke-width="0.5" stroke-miterlimit="10" stroke-linecap="round" stroke-linejoin="round"/>
<path d="M42.585 81.0151C42.585 81.0151 41.5613 78.2965 40.7725 77.7259C40.3194 77.407 38.4231 76.5847 37.1309 76.6518C37.5336 77.021 38.2888 77.8098 38.9097 77.9272C40.353 78.179 41.813 79.8404 42.2661 81.0151" stroke="#062023" stroke-width="0.5" stroke-miterlimit="10" stroke-linecap="round" stroke-linejoin="round"/>
<path d="M43.4411 81.0157C43.4411 81.0157 42.7027 77.4412 41.9475 76.8203C41.2091 76.1994 40.7224 75.8134 40.0008 75.1085C39.296 74.4037 37.6849 73.7324 37.1982 73.7324C38.1212 73.7324 38.4904 74.3534 38.5744 74.6051C39.0442 75.8637 40.7728 76.4846 41.0749 77.3741C41.528 78.7502 42.7195 79.8075 42.6691 81.0157" stroke="#062023" stroke-width="0.5" stroke-miterlimit="10" stroke-linecap="round" stroke-linejoin="round"/>
<path d="M43.8604 76.8878C43.8604 76.8878 44.0785 75.1425 44.8169 74.4041C45.0015 74.2195 45.1693 73.6657 45.1693 73.3804C45.1358 74.0349 45.7231 75.2767 45.4714 76.1494" stroke="#062023" stroke-width="0.5" stroke-miterlimit="10" stroke-linecap="round" stroke-linejoin="round"/>
<path d="M121.844 86.6379V29.7139" stroke="#062023" stroke-width="0.5" stroke-miterlimit="10" stroke-linecap="round" stroke-linejoin="round"/>
<path d="M117.901 77.9113V29.7139" stroke="#062023" stroke-width="0.5" stroke-miterlimit="10" stroke-linecap="round" stroke-linejoin="round"/>
<path d="M113.973 76.7366V29.7139" stroke="#062023" stroke-width="0.5" stroke-miterlimit="10" stroke-linecap="round" stroke-linejoin="round"/>
<path d="M110.03 74.8906V29.7139" stroke="#062023" stroke-width="0.5" stroke-miterlimit="10" stroke-linecap="round" stroke-linejoin="round"/>
<path d="M106.086 69.8733V29.7144" stroke="#062023" stroke-width="0.5" stroke-miterlimit="10" stroke-linecap="round" stroke-linejoin="round"/>
<path d="M121.844 78.6007C117.9 78.6175 106.103 75.4289 106.103 69.656C106.103 64.4704 121.844 65.4437 121.844 60.4092C121.844 55.5256 106.103 56.0962 106.103 50.961C106.103 45.3894 121.844 45.7083 121.844 40.8247C121.844 35.9748 106.103 29.7319 106.103 29.7319" stroke="#062023" stroke-width="0.5" stroke-miterlimit="10" stroke-linecap="round" stroke-linejoin="round"/>
<path d="M121.845 29.7144H106.086" stroke="#062023" stroke-width="0.5" stroke-miterlimit="10" stroke-linecap="round" stroke-linejoin="round"/>
<path d="M89.6753 31.4256L1 44.6665V46.1433L90.1788 32.8353L119.664 9.15612L139.937 44.012L140.625 42.5352L119.933 6.94092L89.6753 31.4256Z" stroke="#062023" stroke-width="0.5" stroke-miterlimit="10" stroke-linecap="round" stroke-linejoin="round"/>
<path d="M89.6753 31.4256L1 44.6665L34.5637 25.1157L119.933 6.94092L89.6753 31.4256Z" stroke="#062023" stroke-width="0.5" stroke-miterlimit="10" stroke-linecap="round" stroke-linejoin="round"/>
<path d="M134.398 44.3305L139.936 44.0117L119.664 9.15576L116.291 11.9248L134.398 44.3305Z" stroke="#062023" stroke-width="0.5" stroke-miterlimit="10" stroke-linecap="round" stroke-linejoin="round"/>
<defs>
<linearGradient id="paint0_linear_57_687" x1="7.00066" y1="49.2891" x2="134.373" y2="49.2891" gradientUnits="userSpaceOnUse">
<stop stop-color="#18808A"/>
<stop offset="1" stop-color="#28C985"/>
</linearGradient>
</defs>
</svg>

<svg width="141" height="90" fill="none" xmlns="http://www.w3.org/2000/svg"><path d="M81.165 34.144 7.006 45.237v41.417l74.16-52.51z" stroke="#062023" stroke-width=".5" stroke-miterlimit="10" stroke-linecap="round" stroke-linejoin="round"/><path d="m7.006 86.654 74.16-52.51 9.011-1.309 26.113-20.91 18.091 32.54v42.19H7.006z" fill="url(#a)"/><path d="M3.181 89.205 128.122 1M91.117 32.197l42.71 11.127M73.766 39.513v11.429M75.562 53.626c.47 1.209-.302 2.618-1.611 2.736-.067 0-.118.017-.185.017s-.117 0-.184-.017c-1.293-.118-2.081-1.494-1.612-2.719l.487-1.275c.084-.235.134-.47.134-.722v-.302a.38.38 0 0 1 .386-.386h1.578a.38.38 0 0 1 .386.386v.302c0 .252.05.504.134.739l.487 1.241zM60.003 73.666l-2.634 1.075a2.094 2.094 0 0 0-1.158 2.685l2.131 5.554a.49.49 0 0 0 .47.32h29.821a.532.532 0 0 0 .47-.32l2.182-5.722a2.087 2.087 0 0 0-.99-2.601l-2.45-1.26" stroke="#062023" stroke-width=".5" stroke-miterlimit="10" stroke-linecap="round" stroke-linejoin="round"/><path d="M73.01 78.097H60.74a.62.62 0 0 1-.62-.621v-5.152a.62.62 0 0 1 .62-.621H73.01a.62.62 0 0 1 .621.62v5.153c.017.335-.268.62-.62.62zM73.094 81.553H59.283a.62.62 0 0 1-.621-.62v-1.31a.62.62 0 0 1 .62-.62h13.812a.62.62 0 0 1 .62.62v1.31c.018.352-.268.62-.62.62zM88.567 81.553H74.755a.62.62 0 0 1-.62-.62v-1.31a.62.62 0 0 1 .62-.62h13.812a.62.62 0 0 1 .62.62v1.31a.61.61 0 0 1-.62.62zM87.007 78.097H74.739a.62.62 0 0 1-.62-.621v-5.152a.62.62 0 0 1 .62-.621h12.268a.62.62 0 0 1 .62.62v5.153c.017.335-.268.62-.62.62zM59.046 83.299l-.201 3.088c0 .084.1.1.134.033l1.343-3.121M88.414 83.299l.201 3.088c0 .084-.1.1-.134.033L87.14 83.3M44.984 86.638H42.45c-.655 0-1.225-.403-1.343-.957l-.638-3.188c-.15-.705.487-1.36 1.343-1.36h3.826c.84 0 1.477.655 1.343 1.36l-.638 3.188c-.134.554-.705.957-1.36.957zM44.448 81.133s-.034-.872.62-1.577c.655-.705 2.333-3.121 3.122-3.34.789-.218 2.534-.15 2.534-.15s-1.863.117-2.333.822c-.47.705-1.057 2.45-2.483 2.92-.537.168-.823 1.309-.823 1.309" stroke="#062023" stroke-width=".5" stroke-miterlimit="10" stroke-linecap="round" stroke-linejoin="round"/><path d="M43.912 81.016s.218-4.179 2.467-5.79c1.04-.739 1.342-1.712 2.299-1.896-.504.553.134 1.88-1.175 2.466 0 0-.99.252-1.443 1.712-.286.907-.99 2.03-.99 2.03" stroke="#062023" stroke-width=".5" stroke-miterlimit="10" stroke-linecap="round" stroke-linejoin="round"/><path d="M44.162 79.237s-.235-3.725-1.124-4.229c-.89-.487-2.216-1.074-3.055-.604-.688.386-.99 1.208-1.627 1.376.839-.034 1.963-1.712 2.97-1.124.453.268 2.047.94 2.383 6.343" stroke="#062023" stroke-width=".5" stroke-miterlimit="10" stroke-linecap="round" stroke-linejoin="round"/><path d="M42.585 81.015s-1.024-2.719-1.813-3.29c-.453-.318-2.349-1.14-3.641-1.073.403.369 1.158 1.158 1.779 1.275 1.443.252 2.903 1.913 3.356 3.088" stroke="#062023" stroke-width=".5" stroke-miterlimit="10" stroke-linecap="round" stroke-linejoin="round"/><path d="M43.441 81.016s-.738-3.575-1.494-4.196c-.738-.62-1.225-1.007-1.946-1.711-.705-.705-2.316-1.377-2.803-1.377.923 0 1.292.621 1.376.873.47 1.259 2.199 1.88 2.5 2.77.454 1.375 1.645 2.433 1.595 3.64M43.86 76.888s.218-1.746.957-2.484c.184-.184.352-.738.352-1.024-.033.655.554 1.897.302 2.77M121.844 86.638V29.714M117.901 77.911V29.714M113.973 76.737V29.714M110.03 74.89V29.715M106.086 69.873V29.714M121.844 78.6c-3.944.018-15.741-3.171-15.741-8.944 0-5.186 15.741-4.212 15.741-9.247 0-4.883-15.741-4.313-15.741-9.448 0-5.572 15.741-5.253 15.741-10.136 0-4.85-15.741-11.093-15.741-11.093M121.845 29.714h-15.759" stroke="#062023" stroke-width=".5" stroke-miterlimit="10" stroke-linecap="round" stroke-linejoin="round"/><path d="M89.675 31.426 1 44.666v1.477l89.179-13.308 29.485-23.679 20.273 34.856.688-1.477-20.692-35.594-30.258 24.485z" stroke="#062023" stroke-width=".5" stroke-miterlimit="10" stroke-linecap="round" stroke-linejoin="round"/><path d="M89.675 31.426 1 44.666l33.564-19.55L119.933 6.94 89.675 31.426zM134.398 44.33l5.538-.318-20.272-34.856-3.373 2.769 18.107 32.406z" stroke="#062023" stroke-width=".5" stroke-miterlimit="10" stroke-linecap="round" stroke-linejoin="round"/><defs><linearGradient id="a" x1="7.001" y1="49.289" x2="134.373" y2="49.289" gradientUnits="userSpaceOnUse"><stop stop-color="#18808A"/><stop offset="1" stop-color="#28C985"/></linearGradient></defs></svg>
